X:1
T:[ID 6-56]
T:[ID 6-56]
T:Bezeichnung standardisiert: Menuett Menuet 28.
T:Urheber unbekannt Datum in der hier transkribierten schriftlichen Quelle: 1775
C:Urheber unbekannt
C:Datum in der hier transkribierten schriftlichen Quelle: 1775
L:1/8
M:3/4
K:D
V:1 treble 
V:1
 B,G B2 B2 | B2 GEAF | B2 GEAF | B4 c2 | dBecAF | dBecAF | cedGFE | F4 z2 :: GA B2 B2 | ABcA F2 | %10
 GABG B,2 | DEFD B,2 | GEAFDB, | GEAFDB, | FAGCB,A, | B,4 z2 :| %16

